svg/u1F4AC.svg

<svg viewBox="0 0 2600 2760.837" xmlns="http://www.w3.org/2000/svg"><path d="M582 2605v-493h-107q-105 0-164-59.5t-59-165.5v-1153q0-86 65-148t158-62h1650q94 0 158.5 60t64.5 150v1153q0 102-61 163.5t-162 61.5h-1041z m-107-1963q-42 0-73.5 25t-31.5 67v1153q0 57 24.5 82t80.5 25h225v330l336-330h1089q105 0 105-107v-1153q0-42-31.5-67t-73.5-25h-1650z"/></svg>

<svg viewBox="0 0 2600 2760.837" xmlns="http://www.w3.org/2000/svg"><path d="M582 2605v-493H475q-105 0-164-59.5T252 1887V734q0-86 65-148t158-62h1650q94 0 158.5 60t64.5 150v1153q0 102-61 163.5t-162 61.5H1084zM475 642q-42 0-73.5 25T370 734v1153q0 57 24.5 82t80.5 25h225v330l336-330h1089q105 0 105-107V734q0-42-31.5-67t-73.5-25H475z"/></svg>
